trunk/public/assets/images/icons/blue/move_up/infopage2.svg

<svg width="16" height="16" xmlns="http://www.w3.org/2000/svg" viewBox="0 0 16 16" shape-rendering="geometricPrecision" fill="#24437c"><defs><mask id="a"><rect fill="#fff" width="100%" height="100%"/><path fill="#000" d="M12.892-.396l-4.507 4.51 2.47 2.47 2.04-2.035 2.036 2.034 2.474-2.47z"/></mask></defs><path fill="#cb1800" d="M12.894 3.136L14.93 5.17l1.06-1.056-3.098-3.096L9.8 4.114l1.056 1.057"/><path d="M1.81 0v16h12.38V0H1.81zm6.22 1.245c.86 0 1.552.695 1.552 1.55s-.692 1.55-1.552 1.55c-.854 0-1.55-.695-1.55-1.55s.695-1.55 1.55-1.55zm3.055 13.548h-6.17V13.26H6.44V7.082H4.92v-1.15h4.64v7.328h1.525v1.533z" mask="url(#a)"/></svg>

<?xml version="1.0"?><!DOCTYPE svg PUBLIC "-//W3C//DTD SVG 1.1//EN" "http://www.w3.org/Graphics/SVG/1.1/DTD/svg11.dtd"><svg width="16px" height="16px" xmlns="http://www.w3.org/2000/svg" viewBox="0 0 16 16" shape-rendering="geometricPrecision" fill="#24437c"><defs><mask id="move_up-path"><rect fill="#fff" width="100%" height="100%"/><polygon points="12.892,-0.396 8.385,4.114 10.856,6.585 12.894,4.549 14.931,6.584 17.404,4.114 " fill="#000"/></mask></defs><polygon points="12.894,3.136 14.931,5.171 15.989,4.114 12.892,1.018 9.799,4.114 10.856,5.171 " fill="#cb1800"/><g mask="url(#move_up-path)"><g><g><g><path d="M1.811-0.001v16h12.378v-16H1.811z M8.03,1.245c0.859,0,1.552,0.695,1.552,1.55s-0.692,1.55-1.552,1.55 c-0.854,0-1.549-0.695-1.549-1.55S7.175,1.245,8.03,1.245z M11.085,14.793H4.915V13.26h1.526V7.082H4.919V5.931h4.64v7.329 h1.526V14.793z"/></g></g></g></g></svg>
